X: 303
T: Beyaz Ten
C: ?
O: Turkey
F: http://compmusic.upf.edu/node/140
N: hicaz--sarki--duyek--beyaz_ten--
N: makam= hicaz
N: form= sarki
N: usul= duyek = 8/4
M: 8/4
L: 1/16
K: C _7/8B ^f ^c 
Q: 1/4=120
%%MIDI tuningsystem comma53
d2e2f2 g2=f2e2  | a2g =fed c6  | A2B2c2 d2c2B2  | \
w:  ARANAĞME  |   |   | 
d2c BBA A6  | 
w:   | 
d2e2f2 g2=f2e2  | a2g =fed c6  | A2B2c2 d2c2B2  | \
w:  ARANAĞME  |   |   | 
d2c BBA A6  | 
w:   | 
A2c4 A6  | c2d cc2 d2e4  | e2d4 c2d2B2  | \
w:  Be yaz  ten   |  üs tün *  *  *  de   |  *  en  gü zel   | 
BAA4 edc de2  | 
w:  ma *  vi   SAZ  | 
c4d2 e6  | e4=f2 d6  | =f4e2 e2d2dc  | d6 c2B2A2  | \
w:  Can lı lık   |  fış kı rır   |  her  bir  ya nın  |  dan   SAZ  | 
A2c4 A6  | c2d cc2 d2e4  | 
w:  Be yaz  ten   |  üs tün *  *  *  de   | 
e2d4 c2d2B2  | BAA4 edc de2  | c4d2 e6  | \
w:  *  en  gü zel   |  ma *  vi   SAZ  |  Can lı lık   | 
e4=f2 d6  | =f4e2 e2d2dc  | 
w:  fış kı rır   |  her  bir  ya nın  | 
d6 def ga2  | e4f2 g4z2  | e4a2 g2=f2e2  | \
w:  dan   SAZ  |  Ben  e sir   |  can  ya kan   | 
g2^1/4f2e2 dcB Adc  | 
w:  ca na ya kın   | 
c6 c2B2A2  | A4B2 c6  | d4cB A6  | A4B2 dcc BBA  | \
w:  o   SAZ  |  Ma vi  göz   |  sar ma *  lar   |  can da ma *  rım  | 
A6 def ga2  | 
w:  dan   SAZ  | 
e4f2 g4z2  | e4a2 g2=f2e2  | g2^1/4f2e2 dcB Adc  | \
w:  Ben  e sir   |  can  ya kan   |  ca na ya kın   | 
c6 c2B2A2  | 
w:  o   SAZ  | 
A4B2 c6  | d4cB A6  | A4B2 dcc BBA  | A6 edc BA2  | 
w:  Ma vi  göz   |  sar ma *  lar   |  can da ma *  rım  |  dan   SAZ  | 
|


